img/sticky-restore.svg

<svg clip-rule="evenodd" fill-rule="evenodd" stroke-linejoin="round" stroke-miterlimit="2" viewBox="0 0 334 334"
     xmlns="http://www.w3.org/2000/svg">
    <g fill="#ffffff" transform="scale(.416667)">
        <path d="m537.5 400c0-13.807-11.193-25-25-25h-365.752l65.355-56.019c10.483-8.985 11.697-24.768 2.712-35.251-8.986-10.483-24.768-11.697-35.251-2.711l-116.667 100.001c-5.541 4.747-8.73 11.683-8.73 18.98s3.189 14.233 8.73 18.98l116.667 100c10.483 8.987 26.265 7.773 35.251-2.71 8.985-10.483 7.771-26.267-2.712-35.25l-65.355-56.02h365.752c13.807 0 25-11.193 25-25z"/>
        <path d="m312.5 266.667c0 23.406 0 35.109 5.617 43.516 2.432 3.641 5.558 6.766 9.198 9.199 8.408 5.617 20.112 5.617 43.518 5.617h141.667c41.42 0 75 33.578 75 75.001 0 41.42-33.58 75-75 75h-141.667c-23.406 0-35.113 0-43.52 5.617-3.639 2.433-6.763 5.556-9.195 9.196-5.618 8.407-5.618 20.11-5.618 43.52 0 94.28 0 141.42 29.29 170.71s76.423 29.29 170.703 29.29h33.334c94.28 0 141.42 0 170.71-29.29s29.29-76.43 29.29-170.71v-266.666c0-94.281 0-141.422-29.29-170.711s-76.43-29.289-170.71-29.289h-33.334c-94.28 0-141.413 0-170.703 29.289s-29.29 76.43-29.29 170.711z"
              fill-rule="nonzero"/>
    </g>
</svg>

<?xml version="1.0" encoding="UTF-8" standalone="no"?>
<!DOCTYPE svg PUBLIC "-//W3C//DTD SVG 1.1//EN" "http://www.w3.org/Graphics/SVG/1.1/DTD/svg11.dtd">
<svg width="100%" height="100%" viewBox="0 0 334 334" version="1.1" xmlns="http://www.w3.org/2000/svg"
     xmlns:xlink="http://www.w3.org/1999/xlink" xml:space="preserve" xmlns:serif="http://www.serif.com/"
     style="fill-rule:evenodd;clip-rule:evenodd;stroke-linejoin:round;stroke-miterlimit:2;">
    <g transform="matrix(0.416667,0,0,0.416667,0,0)">
        <path d="M537.5,400C537.5,386.193 526.307,375 512.5,375L146.748,375L212.103,318.981C222.586,309.996 223.8,294.213 214.815,283.73C205.829,273.247 190.047,272.033 179.564,281.019L62.897,381.02C57.356,385.767 54.167,392.703 54.167,400C54.167,407.297 57.356,414.233 62.897,418.98L179.564,518.98C190.047,527.967 205.829,526.753 214.815,516.27C223.8,505.787 222.586,490.003 212.103,481.02L146.748,425L512.5,425C526.307,425 537.5,413.807 537.5,400Z"
              style="fill:white;"/>
        <path d="M312.5,266.667C312.5,290.073 312.5,301.776 318.117,310.183C320.549,313.824 323.675,316.949 327.315,319.382C335.723,324.999 347.427,324.999 370.833,324.999L512.5,324.999C553.92,324.999 587.5,358.577 587.5,400C587.5,441.42 553.92,475 512.5,475L370.833,475C347.427,475 335.72,475 327.313,480.617C323.674,483.05 320.55,486.173 318.118,489.813C312.5,498.22 312.5,509.923 312.5,533.333C312.5,627.613 312.5,674.753 341.79,704.043C371.08,733.333 418.213,733.333 512.493,733.333L545.827,733.333C640.107,733.333 687.247,733.333 716.537,704.043C745.827,674.753 745.827,627.613 745.827,533.333L745.827,266.667C745.827,172.386 745.827,125.245 716.537,95.956C687.247,66.667 640.107,66.667 545.827,66.667L512.493,66.667C418.213,66.667 371.08,66.667 341.79,95.956C312.5,125.245 312.5,172.386 312.5,266.667Z"
              style="fill:white;fill-rule:nonzero;"/>
    </g>
</svg>
